X:726
T:Nolan the Soldier
M:6/8
L:1/8
R:jig
B:O'Neill's 726
N:"collected by F. O'Neill"
Z:transcribed by mvhplank
K:D
D2 F A2 A|BGB A2 F|GFG E2 G|FEF D3|\
D2 F A2 A|BGB A2 A|Bcd ecA|B2 c d2:|
||(d/2e/2)|fgf fgf|ecA Ace|fgf fgf|gfg e2 (d/2e/2)|\
fgf fgf|ecA Ace|Bcd ecA|B2 c d2 z:|


